!!!!SEGMENT: pl-kk--kk-i-109--001-001_pekiel-bartlomiej--missa-paschalis-kyrie.krn
!!!cenid: 16xx:1113
!!!COM: Pękiel, Bartłomiej
!!!COM-rismID: pe30105642
!!!CDT: <1633-~1670
!!!CNT: Polish
!!!OPR: Missa Paschalis
!!!OTL: Kyrie
!!!OMV: 001
!!!PDT:
!!!AGN: Sacred; Mass
!!!YEC: Copyright 2022 Narodowy Instytut Fryderyka Chopina (https://polishscores.org)
!!!YEM: License CC-BY-4.0 (https://creativecommons.org/licenses/by/4.0)
!!!SMS-siglum: PL-Kk
!!!SMS-shelfmark: Kk.I.109
!!!SMS-shelfwork: 001-001 M
!!!SMS-variant:
!!!SMS-altvar:
!!!NIFC-rismSourceID: 1001145405
!!!NIFC-rismChildID: 1001145405
!!!NIFC-islandoraID: pl-kk:3341
!!!URL-pdf-islandora: https://repozytorium.nifc.pl/islandora/object/pl-kk%3A3341/datastream/PDF/view
!!!URL-scan: https://polish.musicsources.pl/pl/lokalizacje/galeria/rekopisy/5744 @EN{Scan on Polish Music Sources Website} @PL{Skany w portalu Dziedzictwo Muzyki Polskiej w otwartym dostępie}
!!!IIIF:
!!!ONB-nifc: UWAGA: części Mszy: 1. Kyrie, 2. Et in terra, 3. Patrem, 4. Sanctus, 5. Agnus Dei
!!!AIN: 1 alto 2 empty 2 tenor
!!!key:
**kern	**fba	**text	**kern	**text	**kern	**text	**kern	**text	**kern	**text
*part5	*	*	*part4	*	*part3	*	*part2	*	*part1	*
*staff5	*	*	*staff4	*	*staff3	*	*staff2	*	*staff1	*
*Iempty	*	*	*Iempty	*	*Itenor	*	*Itenor	*	*Ialto	*
*I"[Basso ripieno]	*	*	*I"Baſso.	*	*I"Tenore 2o	*	*I"Tenor 1o	*	*I"Alto.	*
*I'[B rip]	*	*	*I'B	*	*I'T II	*	*I'T I	*	*I'A	*
*clefF4	*	*	*clefF4	*	*clefC4	*	*clefC4	*	*clefC3	*
*k[]	*	*	*k[]	*	*k[]	*	*k[]	*	*k[]	*
*a:	*	*	*a:	*	*a:	*	*a:	*	*a:	*
*M2/1	*	*	*M2/1	*	*M2/1	*	*M2/1	*	*M2/1	*
*met(c)	*	*	*met(c)	*	*met(c)	*	*met(c)	*	*met(c)	*
=1-	=1-	=1-	=1-	=1-	=1-	=1-	=1-	=1-	=1-	=1-
*	*	*	*	*	*all\right	*	*all\right	*	*	*
!	!	!	!	!	!	!	!	!	!LO:TX:t=P:problem=zgodnie z prośbą E.Z. wszystkie dopiski inną ręką wprowadzam do pliku	!
!	!	!	!	!	!	!	!	!	!LO:TX:t=P::problem=A, B&colon; kreski pseudotaktowe wpisane inną ręką	!
!LO:TX:i:t=Miſsa a. 4. De Resurrectione D(omi)ni	!	!	!	!	!	!	!	!	!LO:TX:t=P:global:problem=oddech/cezura na różnej wysokości	!
!LO:TX:t=P:problem=tekst, niektóre kreski pseudotaktowe wpisane inną ręką	!	!	!	!	!	!	!	!	!LO:TX:t=P:problem=2\middle (A, B, B rip); all\right (T I, T II)	!
!LO:TX:t=P:problem=niekompletne źródło brak klucza	!	!	!LO:TX:i:t=Miſsa a 4. De Resurrectione D(omi)ni.	!	!LO:TX:a:t=A 4.	!	!LO:TX:a:t=A 4.	!	!LO:TX:a:t=a 4.	!
2D/	3-	Ky-	4.D/	Ky-	0r	.	4.d\	Ky-	4.f\	Ky-
.	.	.	8D/	-ri-	.	.	8d\	-ri-	8f\	-ri-
*2\right	*	*	*	*	*	*	*	*	*	*
!LO:TX:t=P:problem=kreska pseudotaktowa	!	!	!LO:TX:t=P:problem=kreska pseudotaktowa	!	!	!	!	!	!	!
2A\	-	-ri-	2A\	-e	.	.	8c\L	.	8e\L	-e
.	.	.	.	.	.	.	8B\	.	8d\	.
.	.	.	.	.	.	.	8c\	.	8e\	.
!	!	!	!	!	!	!	!LO:TX:t=P:problem=kreska pseudotaktowa	!	!LO:TX:t=P:problem=kreska pseudotaktowa	!
.	.	.	.	.	.	.	8d\J	.	8f\J	.
2E\	-	-e	2E\	.	.	.	4.en\	.	[>2g\	.
.	.	.	.	.	.	.	16d\LL	-e	.	.
.	.	.	.	.	.	.	16c\JJ	.	.	.
!LO:TX:t=P:problem=kreska pseudotaktowa	!	!	!LO:TX:t=P:problem=kreska pseudotaktowa	!	!	!	!	!	!	!
2G\	n	e-	2G\	.	.	.	8Bn\L	.	8g\L]	.
.	.	.	.	.	.	.	8A\	.	16f\L	.
.	.	.	.	.	.	.	.	.	16e\J	.
.	.	.	.	.	.	.	8B\	.	8d\	.
!	!	!	!	!	!	!	!LO:TX:t=P:problem=kreska pseudotaktowa	!	!LO:TX:t=P:problem=kreska pseudotaktowa	!
.	.	.	.	.	.	.	8c\J	.	8e\J	.
=2-	=2-	=2-	=2-	=2-	=2-	=2-	=2-	=2-	=2-	=2-
!	!	!	!	!	!LO:TX:t=P:problem=kreska pseudotaktowa	!	!	!	!	!
2F\	6	-le[i]-	2F\	e-	1r	.	2.d\	[e-	8f\L	e-
.	.	.	.	.	.	.	.	.	8g\	.
.	.	.	.	.	.	.	.	.	8a\	.
.	.	.	.	.	.	.	.	.	8f\J	.
!LO:TX:t=P:problem=kreska pseudotaktowa	!	!	!LO:TX:t=P:problem=kreska pseudotaktowa	!	!	!	!	!	!LO:TX:t=P:problem=kreska pseudotaktowa	!
2E\	7	.	2E\	-lei-	.	.	.	.	2g\	-lei-
!	!	!	!	!	!	!	!LO:TX:t=P:problem=kreska pseudotaktowa	!	!	!
!	!	!	!	!	!	!	!LO:TX:t=P:problem=# above	!	!	!
.	6|	.	.	.	.	.	4c#X\	-lei]	.	.
4.D,</	#	-son	4D,</	-son	4.A/	Ky-	2d\	son	4f#X,<\	-son
*	*	*ij	*	*ij	*	*	*	*	*	*
.	.	.	8.D/	Ky-	.	.	.	.	8f#\	Ky-
8C/L	.	Ky-	.	.	8A/	-ri-	.	.	8e\	-ri-
.	.	.	16C/	-ri-	.	.	.	.	.	.
!	!	!	!	!	!LO:TX:t=P:problem=kreska pseudotaktowa	!	!	!	!	!
!	!	!	!	!	!	!	!LO:TX:t=P:problem=kreska pseudotaktowa	!	!	!
8BB/	.	.	8BB/L	-e	2Bn\	-e	2r	.	8d\L	-e
8AA/J	.	.	8AA/J	.	.	.	.	.	16e\L	.
.	.	.	.	.	.	.	.	.	16f#\JJ	.
!LO:TX:t=P:problem=kreska pseudotaktowa	!	!	!LO:TX:t=P:problem=kreska pseudotaktowa	!	!	!	!	!	!	!
4GG/	.	-ri-	4GG/	.	.	.	.	.	8g\L	e-
!	!	!	!	!	!	!	!	!	!LO:TX:t=P:problem=kreska pseudotaktowa	!
.	.	.	.	.	.	.	.	.	8f#\J	.
=3-	=3-	=3-	=3-	=3-	=3-	=3-	=3-	=3-	=3-	=3-
!	!	!	!	!	!	!	!	!	!LO:TX:t=P:problem=kreska pseudotaktowa	!
*	*	*	*	*	*	*	*	*ij	*	*
8AA/L	.	-e	8AA/L	e-	2c\	e-	4.A/	Ky-	1e\	-lei-
8BB/	.	.	8BB/	.	.	.	.	.	.	.
8C/	.	.	8C/	.	.	.	.	.	.	.
8AA/J	.	.	8AA/J	.	.	.	8A/	-ri-	.	.
!	!	!	!	!	!LO:TX:t=P:problem=kreska pseudotaktowa	!	!LO:TX:t=P:problem=kreska pseudotaktowa	!	!	!
8E\L	n_	e-	8E\L	.	2B\	.	2Bn\	-e	.	.
8F\	.	.	8F\	.	.	.	.	.	.	.
8G\	X	.	8G\	.	.	.	.	.	.	.
!LO:TX:t=P:problem=kreska pseudotaktowa	!	!	!LO:TX:t=P:problem=kreska pseudotaktowa	!	!	!	!	!	!	!
8E\J	.	.	8E\J	.	.	.	.	.	.	.
4A\	.	.	4A\	.	2.A/	-le-	2cny\	[e-	4e\	-son
4C/	6	.	4C/	.	.	.	.	.	4e\	e-
4D/	6- 5	-le[i]-	4D/	-lei-	.	.	2B\	-lei]-	4fny\	-lei-
!LO:TX:t=P:problem=kreska pseudotaktowa	!	!	!LO:TX:t=P:problem=kreska pseudotaktowa	!	!LO:TX:t=P:problem=kreska pseudotaktowa	!	!	!	!	!
4E\	#	.	4E\	.	4G#X/	-i-	.	.	4e\	.
=4-	=4-	=4-	=4-	=4-	=4-	=4-	=4-	=4-	=4-	=4-
!	!	!	!	!	!	!	!LO:TX:t=P:problem=kreska pseudotaktowa	!	!	!
!	!	!	!	!	!	!	!LO:TX:t=P:problem=# above	!	!LO:TX:t=P:problem=kreska pseudotaktowa	!
4AA/	#	-son	4AA/	-son	1A\,<	-ſon	1c#X\	-son	1e\	-son
*	*	*Xij	*	*Xij	*	*	*	*	*	*
2A\	.	Ky-	2A\	Ky-	.	.	.	.	.	.
!LO:TX:t=P:problem=kreska pseudotaktowa	!	!	!LO:TX:t=P:problem=kreska pseudotaktowa	!	!	!	!	!	!	!
4G\	6	-ri-	4G\	-ri-	.	.	.	.	.	.
*	*	*	*	*	*	*ij	*	*	*	*
!LO:TX:i:t=Di Sign. B. F.	!	!	!	!	!	!	!	!	!	!
8F#X\L	6	-e	8F#X\L	-e	2d\	Ky-	4.A/	Ky-	2r	.
8D\	.	.	8D\	.	.	.	.	.	.	.
8E\	.	.	8E\	.	.	.	.	.	.	.
8F#\J	.	.	8F#\J	.	.	.	8A/	-ri-	.	.
!	!	!	!	!	!LO:TX:t=P:problem=kreska pseudotaktowa	!	!	!	!	!
4G\	.	.	4G\	.	2B\	-ri-	2.G/	-e	4.g\	Ky-
!LO:TX:t=P:problem=kreska pseudotaktowa	!	!	!LO:TX:t=P:problem=kreska pseudotaktowa	!	!	!	!	!	!	!
4GG/	.	.	4GG/	e-	.	.	.	.	.	.
!	!	!	!	!	!	!	!	!	!LO:TX:t=P:problem=kreska pseudotaktowa	!
.	.	.	.	.	.	.	.	.	8g\	-ri-
=5-	=5-	=5-	=5-	=5-	=5-	=5-	=5-	=5-	=5-	=5-
*custos:FF	*	*	*	*	*	*	*	*	*	*
2C/	.	.	2C/	-lei-	2c\	-e	.	.	2e\	-e
*	*	*	*	*	*	*	*custos:B	*	*	*
.	.	.	.	.	.	.	4.cny\	[e-	.	.
*	*	*	*	*	*	*	*	*	*custos:e	*
!LO:LB:g=original	!	!	!	!	!LO:TX:t=P:problem=kreska pseudotaktowa	!	!	!	!	!
8FF/L	.	.	8FF/L	-ſon	2A/	e-	.	.	2f\	.
!	!	!	!	!	!	!	!LO:LB:g=original	!	!	!
8GG/	.	.	8GG/	e-	.	.	8B-X\L	.	.	.
8AA/	.	.	8AA/	.	.	.	8c\	.	.	.
*	*	*	*custos:C	*	*	*	*	*	*	*
!LO:TX:t=P:problem=kreska pseudotaktowa	!	!	!LO:TX:t=P:problem=♭ above	!	!	!	!LO:TX:t=P:problem=kreska pseudotaktowa	!	!	!
8BB-X/J	.	.	8BB-X/J	.	.	.	8d\J	.	.	.
!	!	!	!LO:LB:g=original	!	!	!	!	!	!LO:LB:g=original	!
8C/L	.	e-	8C\L	.	2Gny/	-le-	8e\L	.	2e\	e-
8D/	.	.	8D\	.	.	.	8d\	.	.	.
8E/	.	.	8E\	.	.	.	8c\	.	.	.
8C/J	.	.	8C\J	.	.	.	8Bny\J	.	.	.
!LO:TX:t=P:problem=kreska pseudotaktowa	!	!	!LO:TX:t=P:problem=kreska pseudotaktowa	!	!	!	!	!	!LO:TX:t=P:problem=kreska pseudotaktowa	!
2D/	.	-lei-	2D/	-lei-	2F/	-i-	8A/L	-lei]-	2d\	-lei-
.	.	.	.	.	.	.	8G/J	.	.	.
!	!	!	!	!	!	!	!LO:TX:t=P:problem=kreska pseudotaktowa	!	!	!
.	.	.	.	.	.	.	4A/	.	.	.
=6-	=6-	=6-	=6-	=6-	=6-	=6-	=6-	=6-	=6-	=6-
!LO:TX:t=P:problem=kreska pseudotaktowa	!	!	!	!	!LO:TX:t=P:problem=kreska pseudotaktowa	!	!	!	!	!
1AA/	#	-son	1AA/	-son	1E/	-ſon	4A/	-son	4c#X/	-son
.	.	.	.	.	.	.	8.A/	Ky-	8c#/	Ky-
.	.	.	.	.	.	.	.	.	8d\	-ri-
.	.	.	.	.	.	.	16B\	-ri-	.	.
!	!	!	!	!	!	!	!LO:TX:t=P:problem=# above	!	!	!
.	.	.	.	.	.	.	8c#X\L	-e	8e\L	-e
*	*	*	*	*ij	*	*Xij	*	*Xij	*	*
!	!	!	!	!	!	!	!	!	!LO:TX:t=P:problem=# above	!
.	.	.	.	.	.	.	8A\	.	8c#X\	.
.	.	.	.	.	.	.	8B\	.	8d\	.
!	!	!	!	!	!	!	!LO:TX:t=P:problem=kreska pseudotaktowa	!	!LO:TX:t=P:problem=kreska pseudotaktowa	!
.	.	.	.	.	.	.	8c#\J	.	8e\J	.
2D/	-	Ky-	4.D/	Ky-	2r	.	8d\L	.	2f\	.
.	.	.	.	.	.	.	8A\J	.	.	.
.	.	.	.	.	.	.	4.d\	.	.	.
.	.	.	8D/	-ri-	.	.	.	.	.	.
!LO:TX:t=P:problem=kreska pseudotaktowa	!	!	!LO:TX:t=P:problem=kreska pseudotaktowa	!	!	!	!	!	!	!
2A\	4	-ri-	2A\	-e	4.A/	Ky-	.	.	[2e\	.
.	.	.	.	.	.	.	16cny\LL	.	.	.
.	.	.	.	.	.	.	16B\JJ	.	.	.
!	!	!	!	!	!	!	!LO:TX:t=P:problem=kreska pseudotaktowa	!	!	!
.	3	.	.	.	.	.	4c\	.	.	.
!	!	!	!	!	!LO:TX:t=P:problem=kreska pseudotaktowa	!	!	!	!	!
.	.	.	.	.	8A/	-ri-	.	.	.	.
=7-	=7-	=7-	=7-	=7-	=7-	=7-	=7-	=7-	=7-	=7-
*	*	*	*	*	*custos:A	*	*	*	*	*
2E\	.	-e	2E\	e-	2e\	-e	8G/L	.	8e\L]	.
.	.	.	.	.	.	.	8A/J	.	8f\J	.
.	.	.	.	.	.	.	4.B\	.	2g\	.
!LO:TX:t=P:problem=kreska pseudotaktowa	!	!	!LO:TX:t=P:problem=kreska pseudotaktowa	!	!LO:TX:t=P:problem=kreska pseudotaktowa	!	!	!	!	!
!	!	!	!	!	!LO:LB:g=original	!	!	!	!	!
2G\	n	.	2G\	.	2B\	e	.	.	.	.
.	.	.	.	.	.	.	8c\L	.	.	.
!	!	!	!	!	!	!	!	!	!LO:TX:t=P:problem=kreska pseudotaktowa	!
.	.	.	.	.	.	.	8d\	.	4G/	.
!	!	!	!	!	!	!	!LO:TX:t=P:problem=kreska pseudotaktowa	!	!	!
.	.	.	.	.	.	.	8e\J	.	.	.
2Fny\	.	e-	2Fny\	-lei-	2.d\	e-	8f\L	.	4.A/	e-
.	.	.	.	.	.	.	8e\J	.	.	.
.	.	.	.	.	.	.	4d\	.	.	.
.	.	.	.	.	.	.	.	.	8A/	-lei-
!	!	!	!	!	!	!	!LO:TX:t=P:problem=kreska pseudotaktowa	!	!	!
4E\	#	-lei-	4E\	.	.	.	2e\	.	4G#X/	-son
!LO:TX:t=P:problem=kreska pseudotaktowa	!	!	!LO:TX:t=P:problem=kreska pseudotaktowa	!	!LO:TX:t=P:problem=kreska pseudotaktowa	!	!	!	!LO:TX:t=P:problem=kreska pseudotaktowa	!
*	*	*	*	*	*	*	*	*	*	*ij
4AA/	.	.	4AA/	.	4c\	.	.	.	4A/	e-
=8-	=8-	=8-	=8-	=8-	=8-	=8-	=8-	=8-	=8-	=8-
!	!	!	!LO:TX:t=P:problem=kreska pseudotaktowa	!	!	!	!	!	!	!
1EE/	5	.	1E\	.	4B\	.	2.E/	e-	4B/	-lei-
.	6	.	.	.	2A/	.	.	.	4cny/	.
!	!	!	!	!	!	!	!	!	!LO:TX:t=P:problem=kreska pseudotaktowa	!
.	5	.	.	.	.	.	.	.	2B/	.
!	!	!	!	!	!LO:TX:t=P:problem=kreska pseudotaktowa	!	!	!	!	!
.	.	.	.	.	4G#X/	.	4.e\	-ley-	.	.
4AA,</	-	-son	4AA,</	-son	2.A/	.	.	.	8c/L	-son
.	.	.	.	.	.	.	8d\L	.	8B/J	.
*	*	*	*	*	*	*	*custos:B	*	*	*
*	*	*ij	*	*	*	*	*	*	*	*
8A\L	.	e-	8A\	Ky-	.	.	8c\J	.	2A/	.
!	!	!	!	!	!	!	!LO:LB:g=original	!	!	!
8G\	.	.	8G\	-ri-	.	.	8B\	.	.	.
8F\	.	.	8F\L	-e	.	.	4A/	.	.	.
8E\J	.	.	8E\J	.	.	.	.	.	.	.
!LO:TX:t=P:problem=kreska pseudotaktowa	!	!	!LO:TX:t=P:problem=kreska pseudotaktowa	!	!	!	!LO:TX:t=P:problem=przekreślona synkopowana wartość	!	!LO:TX:t=P:problem=kreska pseudotaktowa	!
4D/	.	.	4D/	e-	4f\	-le-	2d\	.	4a\	e-
=9-	=9-	=9-	=9-	=9-	=9-	=9-	=9-	=9-	=9-	=9-
!	!	!	!	!	!LO:TX:t=P:problem=kreska pseudotaktowa	!	!	!	!	!
1E\	#	-lei-	1E\	-lei-	1e\	-i-	.	.	8g#X\L	.
.	.	.	.	.	.	.	.	.	8e\J	.
.	4	.	.	.	.	.	4c\	.	2a\	-lei-
!	!	!	!	!	!	!	!LO:TX:t=P:problem=kreska pseudotaktowa	!	!	!
.	.	.	.	.	.	.	2B\	.	.	.
!	!	!	!	!	!	!	!	!	!LO:TX:t=P:problem=# above	!
.	#	.	.	.	.	.	.	.	4g#X\	.
!	!	!	!LO:TX:t=P:problem=kreska pseudotaktowa	!	!LO:TX:t=P:problem=kreska pseudotaktowa	!	!LO:TX:t=P:problem=kreska pseudotaktowa	!	!LO:TX:t=P:problem=kreska pseudotaktowa	!
1AA/,<	#	-son	1AA/	-son	1e\	-ſon	1c#X\	-son	1a\	-son
*	*	*Xij	*	*Xij	*	*	*	*	*	*Xij
=10-	=10-	=10-	=10-	=10-	=10-	=10-	=10-	=10-	=10-	=10-
*clefC4	*	*	*	*	*	*	*	*	*	*
!	!	!	!LO:TX:a:t=4.	!	!	!	!	!	!	!
!	!	!	!LO:N:vis=00	!	!	!	!	!	!	!
!	!	!	!LO:TX:t=P:problem=kreska pseudotaktowa	!	!	!	!	!	!	!
2A/	.	.	0.r	.	1r	.	4r	.	4r	.
.	.	.	.	.	.	.	4A/	Chri-	4a\	Chri-
4B\	6	.	.	.	.	.	4B\	-ste	4gny\	-ste
!	!	!	!	!	!	!	!LO:TX:t=P:problem=kreska pseudotaktowa	!	!	!
!	!	!	!	!	!	!	!LO:TX:t=P:problem=# above	!	!LO:TX:t=P:problem=kreska pseudotaktowa	!
4c#X\	.	.	.	.	.	.	4c#X\	.	4e\	e-
*clefF4	*	*	*	*	*	*	*	*	*	*
*	*	*	*	*	*	*	*	*	*custos:e	*
!LO:TX:t=P:metrum: C:problem	!	!	!	!	!	!	!	!	!	!
2D/	-	.	.	.	2D/	Chri-	8d\L	e-	2f\	.
.	.	.	.	.	.	.	8cny\	.	.	.
.	.	.	.	.	.	.	8A\	.	.	.
.	.	.	.	.	.	.	8B\J	.	.	.
*custos:E	*	*	*	*	*	*	*	*	*	*
!	!	!	!	!	!LO:TX:t=P:problem=kreska pseudotaktowa	!	!	!	!LO:LB:g=original	!
2A\	.	.	.	.	2A/	-ſte	8c\L	-ley-	8e\L	-lei-
.	.	.	.	.	.	.	8B\	.	8d\	.
.	.	.	.	.	.	.	8c\	.	8e\	.
!	!	!	!	!	!	!	!LO:TX:t=P:problem=kreska pseudotaktowa	!	!LO:TX:t=P:problem=kreska pseudotaktowa	!
.	.	.	.	.	.	.	8d\J	.	8f\J	.
=11-	=11-	=11-	=11-	=11-	=11-	=11-	=11-	=11-	=11-	=11-
!LO:LB:g=original	!	!	!	!	!	!	!	!	!	!
2E\	-	.	.	.	2E/	e-	4.e\	.	4.g\	.
.	.	.	.	.	.	.	16d\LL	.	16f\LL	.
.	.	.	.	.	.	.	16c\JJ	.	16e\JJ	.
!LO:TX:t=P:problem=kreska pseudotaktowa	!	!	!	!	!LO:TX:t=P:problem=kreska pseudotaktowa	!	!	!	!	!
2G\	n	.	.	.	2Gny/	.	8Bn\L	.	8d\L	.
.	.	.	.	.	.	.	8A\	.	8c\	.
.	.	.	.	.	.	.	8B\	.	8d\	.
!	!	!	!	!	!	!	!LO:TX:t=P:problem=kreska pseudotaktowa	!	!LO:TX:t=P:problem=kreska pseudotaktowa	!
.	.	.	.	.	.	.	8c\J	.	8e\J	.
2F\	.	X-	4r	.	2F/	-le-	2d\	.	4f\	-son
!	!	!	!LO:TX:t=P:problem=inną ręką wykreślone nuty	!	!	!	!	!	!	!
*	*	*	*	*	*	*	*	*	*	*ij
.	.	.	4A\	Chri-	.	.	.	.	4a\	Chri-
!LO:TX:t=P:problem=kreska pseudotaktowa	!	!	!	!	!LO:TX:t=P:problem=kreska pseudotaktowa	!	!LO:TX:t=P:problem=kreska pseudotaktowa	!	!	!
2E\	-	-te	4B\	-ſte	2E/	-i-	2e\	.	4g\	-ste
!	!	!	!LO:TX:t=P:problem=kreska pseudotaktowa	!	!	!	!	!	!LO:TX:t=P:problem=kreska pseudotaktowa	!
.	.	.	4c#X\	e-	.	.	.	.	4e\	e-
=12-	=12-	=12-	=12-	=12-	=12-	=12-	=12-	=12-	=12-	=12-
!	!	!	!LO:TX:t=P:problem=inną ręką wykreślona nuta	!	!	!	!	!	!	!
!	!	!	!LO:TX:t=P:problem=mixed beam	!	!	!	!	!	!	!
2D/	-	e-	8d\L	.	2D/	-ſon	4.A\	.	2f\	-lei-
.	.	.	8D|/	.	.	.	.	.	.	.
.	.	.	8F|/	.	.	.	.	.	.	.
.	.	.	8G|/J	.	.	.	8B\	.	.	.
!	!	!	!	!	!LO:TX:t=P:problem=kreska pseudotaktowa	!	!LO:TX:t=P:problem=kreska pseudotaktowa	!	!	!
4A\	.	.	4A\	.	2r	.	2c\	.	8e\L	.
.	.	.	.	.	.	.	.	.	8d\	.
!LO:TX:t=P:problem=kreska pseudotaktowa	!	!	!LO:TX:t=P:problem=kreska pseudotaktowa	!	!	!	!	!	!	!
4AA/	-	.	4AA/	.	.	.	.	.	8e\	.
!	!	!	!	!	!	!	!	!	!LO:TX:t=P:problem=kreska pseudotaktowa	!
!	!	!	!	!	!	!	!	!	!LO:TX:t=P:problem=# above	!
.	.	.	.	.	.	.	.	.	8f#X\J	.
*	*	*	*	*	*	*ij	*	*	*	*
2E\	-	.	2E\	.	2E/	Chri-	8B\L	.	2g\	.
.	.	.	.	.	.	.	8A\	.	.	.
.	.	.	.	.	.	.	8B\	.	.	.
*	*	*	*	*	*	*	*custos:d	*	*	*
.	.	.	.	.	.	.	8c\J	.	.	.
!LO:TX:t=P:problem=kreska pseudotaktowa	!	!	!LO:TX:t=P:problem=kreska pseudotaktowa	!	!LO:TX:t=P:problem=kreska pseudotaktowa	!	!LO:LB:g=original	!	!	!
2BBny/	#	.	2BBny/	.	2B\	-ste	2.d\	.	1f#X\	.
=13-	=13-	=13-	=13-	=13-	=13-	=13-	=13-	=13-	=13-	=13-
2D/	#	.	2D/	.	8F#X/L	e-	.	.	.	.
.	.	.	.	.	8E/	.	.	.	.	.
.	.	.	.	.	8F#/	.	8A\L	.	.	.
*	*	*	*	*	*custos:A	*	*	*	*	*
.	.	.	.	.	8G/J	.	8B\J	.	.	.
!LO:TX:t=P:problem=kreska pseudotaktowa	!	!	!LO:TX:t=P:problem=kreska pseudotaktowa	!	!LO:LB:g=original	!	!	!	!LO:TX:t=P:problem=kreska pseudotaktowa	!
2C/	6	.	2C/	.	8A/L	.	4.c\	.	2e\	.
.	.	.	.	.	8E/J	.	.	.	.	.
.	.	.	.	.	2A/	-le-	.	.	.	.
.	.	.	.	.	.	.	16B\LL	.	.	.
!	!	!	!	!	!	!	!LO:TX:t=P:problem=kreska pseudotaktowa	!	!	!
.	.	.	.	.	.	.	16A\JJ	.	.	.
2BB/	7	-lei-	2BB/	-lei-	.	.	2B\	.	2d\	.
.	6|	.	.	.	4G#X/	-i-	.	.	.	.
*	*	*	*custos:A	*	*	*	*	*	*	*
!	!	!	!LO:TX:t=P:problem=kreska pseudotaktowa	!	!	!	!	!	!	!
!LO:TX:t=P:problem=kreska pseudotaktowa	!	!	!	!	!	!	!	!	!LO:TX:t=P:problem=# below	!
2AA/	#	-son	2AA/	-son	2A/	-ſon	2E/	-son	2c#X/	-son
=14-	=14-	=14-	=14-	=14-	=14-	=14-	=14-	=14-	=14-	=14-
*M3/2	*below	*	*M3/2	*	*M3/2	*Xij	*M3/2	*	*M3/2	*Xij
!	!	!	!LO:LB:g=original	!	!	!	!LO:TX:t=P:problem=# above	!	!	!
1A\	#	Ky-	1A\	Ky-	1A\	Ky-	1c#X\	Ky-	1e\	Ky-
!	!	!	!	!	!	!	!LO:TX:t=P:problem=kreska pseudotaktowa	!	!	!
!LO:TX:t=P:problem=kreska pseudotaktowa	!	!	!LO:TX:t=P:problem=kreska pseudotaktowa	!	!LO:TX:t=P:problem=kreska pseudotaktowa	!	!LO:TX:t=P:problem=# above	!	!LO:TX:t=P:problem=kreska pseudotaktowa	!
*	*above	*	*	*	*	*	*	*	*	*
2F#X\	6|	-ri-	2F#X\	-ri-	2A\	-ri-	2d#X\	-ry-	2f#X\	-ri-
=15-	=15-	=15-	=15-	=15-	=15-	=15-	=15-	=15-	=15-	=15-
!	!	!	!	!	!LO:TX:t=P:problem=kreska pseudotaktowa	!	!	!	!	!
1E\	-	-e	1E\	-e	1.B\	-e	1e\	-e	1g\	-e
!LO:TX:t=P:problem=kreska pseudotaktowa	!	!	!LO:TX:t=P:problem=kreska pseudotaktowa	!	!	!	!LO:TX:t=P:problem=kreska pseudotaktowa	!	!LO:TX:t=P:problem=kreska pseudotaktowa	!
2BB/	#	e-	2BB/	.	.	.	2dny\	.	2f#X\	.
=16-	=16-	=16-	=16-	=16-	=16-	=16-	=16-	=16-	=16-	=16-
2C/	.	-lei-	2C/	e-	2Gny/	e-	1cny\	e-	1e\	e-
2AA/	6 5	.	2AA/	.	2A/	-le-	.	.	.	.
!	!	!	!	!	!	!	!LO:TX:t=P:problem=kreska pseudotaktowa	!	!	!
!LO:TX:t=P:problem=kreska pseudotaktowa	!	!	!LO:TX:t=P:problem=kreska pseudotaktowa	!	!LO:TX:t=P:problem=kreska pseudotaktowa	!	!LO:TX:t=P:problem=sylaba -ley- poprawiona na -lei-	!	!	!
2BB/	#	.	2BB/	lei-	2F#X/	-i-	2B\	-lei-	2d#X\	-lei-
=17-	=17-	=17-	=17-	=17-	=17-	=17-	=17-	=17-	=17-	=17-
!	!	!	!	!	!LO:TX:t=P:problem=kreska pseudotaktowa	!	!	!	!	!
!LO:TX:t=P:problem=kreska pseudotaktowa	!	!	!LO:TX:t=P:problem=kreska pseudotaktowa	!	!LO:TX:t=P:problem=# above	!	!	!	!LO:TX:t=P:problem=kreska pseudotaktowa	!
1.EE/	#	-son	1.E\	-son	1.G#X/	-son	2B\	-son	1.e\	-son
*	*	*ij	*	*ij	*	*ij	*	*ij	*	*
.	.	.	.	.	.	.	2e\	Ky-	.	.
!	!	!	!	!	!	!	!LO:TX:t=P:problem=kreska pseudotaktowa	!	!	!
.	.	.	.	.	.	.	2B\	-ry-	.	.
=18-	=18-	=18-	=18-	=18-	=18-	=18-	=18-	=18-	=18-	=18-
!	!	!	!	!	!	!	!LO:TX:t=P:problem=# above	!	!	!
1AA/	#	Ky-	2.AA/	Ky-	1A\	Ky-	1c#X\	-e	2r	.
.	.	.	.	.	.	.	.	.	2a\	Ky-
.	.	.	4AA/	-ri-	.	.	.	.	.	.
*	*	*	*	*	*	*	*	*	*custos:g	*
!	!	!	!	!	!	!	!	!	!LO:TX:t=P:problem=kreska pseudotaktowa	!
!LO:TX:t=P:problem=kreska pseudotaktowa	!	!	!LO:TX:t=P:problem=kreska pseudotaktowa	!	!LO:TX:t=P:problem=kreska pseudotaktowa	!	!LO:TX:t=P:problem=kreska pseudotaktowa	!	!	!
2D/	.	-ri-	2D/	-e	2A\	-ri-	2d\	e-	2f#X\	-ri-
=19-	=19-	=19-	=19-	=19-	=19-	=19-	=19-	=19-	=19-	=19-
!	!	!	!	!	!	!	!	!	!LO:LB:g=original	!
1GG/	.	-e	1GG/	e-	1B\	-e	1d\	-lei-	1g\	-e
!LO:TX:t=P:problem=kreska pseudotaktowa	!	!	!	!	!LO:TX:t=P:problem=przekreślona synkopowana wartość	!	!LO:TX:t=P:problem=kreska pseudotaktowa	!	!LO:TX:t=P:problem=kreska pseudotaktowa	!
2C/	.	e-	2C/	.	1Gny/	e-	2cny\	.	2e\	.
=20-	=20-	=20-	=20-	=20-	=20-	=20-	=20-	=20-	=20-	=20-
2GG/	.	.	2GG/	.	.	.	2B\	.	2d\ny	e-
*custos:E	*	*	*	*	*	*	*	*	*	*
!	!	!	!	!	!LO:TX:t=P:problem=kreska pseudotaktowa	!	!	!	!	!
1AA/	.	-lei-	1AA/	-lei-	1E/	-lei-	1A\	.	1cny\	-lei-
=21-	=21-	=21-	=21-	=21-	=21-	=21-	=21-	=21-	=21-	=21-
!LO:LB:g=original	!	!	!	!	!	!	!LO:TX:t=P:problem=kreska pseudotaktowa	!	!	!
!LO:TX:t=P:problem=kreska pseudotaktowa	!	!	!LO:TX:t=P:problem=kreska pseudotaktowa	!	!	!	!LO:TX:t=P:problem=# above	!	!LO:TX:t=P:problem=kreska pseudotaktowa	!
1.E\	#	-son	1.E\	-son	2E,</	-son	1.G#X/	-son	1.B/	-son
*	*	*Xij	*	*Xij	*	*Xij	*	*	*	*
.	.	.	.	.	4.Bn\	Ky-	.	.	.	.
.	.	.	.	.	8E/	-ri-	.	.	.	.
.	.	.	.	.	4e\	-e	.	.	.	.
!	!	!	!	!	!LO:TX:t=P:problem=kreska pseudotaktowa	!	!	!	!	!
.	.	.	.	.	4d\,<	.	.	.	.	.
=22-	=22-	=22-	=22-	=22-	=22-	=22-	=22-	=22-	=22-	=22-
1AA/	.	Ky-	2.AA/	Ky-	4c\	.	2.A/	Ky-	4.A/	Ky-
*	*	*	*	*	*custos:A	*	*	*	*	*
.	.	.	.	.	4B\	.	.	.	.	.
.	.	.	.	.	.	.	.	.	8A/	-ri-
!	!	!	!	!	!LO:LB:g=original	!	!	!	!	!
.	.	.	.	.	2A/	.	.	.	2e\	-e
.	.	.	4AA/	-ri-	.	.	4A/	-ry-	.	.
*	*	*	*	*	*	*	*custos:c	*	*	*
!LO:TX:t=P:problem=kreska pseudotaktowa	!	!	!	!	!	!	!	!	!LO:TX:t=P:problem=kreska pseudotaktowa	!
2E\	.	-ri-	2E\	.	4G/	.	2.B\	-e	2B/	.
!	!	!	!	!	!LO:TX:t=P:problem=kreska pseudotaktowa	!	!	!	!	!
.	.	.	.	.	4A,</	.	.	.	.	.
=23-	=23-	=23-	=23-	=23-	=23-	=23-	=23-	=23-	=23-	=23-
1BB/	.	-e	1BB/	-e	2.B\	e-	.	.	2.d\	e-
!	!	!	!	!	!	!	!LO:LB:g=original	!	!	!
.	.	.	.	.	.	.	4c\	e-	.	.
.	.	.	.	.	.	.	4d\	.	.	.
.	.	.	.	.	8A/L	.	4e\	.	8c/L	.
.	.	.	.	.	8G/J	.	.	.	8B/J	.
!	!	!	!	!	!	!	!LO:TX:t=P:problem=kreska pseudotaktowa	!	!	!
!LO:TX:t=P:problem=kreska pseudotaktowa	!	!	!LO:TX:t=P:problem=kreska pseudotaktowa	!	!	!	!LO:TX:t=P:problem=# above	!	!	!
2D/	#	.	2D/	.	4F#X/	.	2f#X\	-lei-	4A/	.
!	!	!	!	!	!LO:TX:t=P:problem=kreska pseudotaktowa	!	!	!	!LO:TX:t=P:problem=kreska pseudotaktowa	!
.	.	.	.	.	4G/	.	.	.	4B/	.
=24-	=24-	=24-	=24-	=24-	=24-	=24-	=24-	=24-	=24-	=24-
2.C/	.	.	2.C/	e-	2A\	.	2e\	-son	1c\	.
!	!	!	!	!	!LO:TX:t=P:problem=kreska pseudotaktowa	!	!	!	!	!
.	.	.	.	.	1e\	-le-	2rc	.	.	.
4D/	.	.	4D/	.	.	.	.	.	.	.
1E\	.	.	1E\	.	.	.	4.E/	Ky-	4B/	.
!	!	!	!	!	!	!	!	!	!LO:TX:t=P:problem=kreska pseudotaktowa	!
.	.	.	.	.	.	.	.	.	4A/	.
!	!	!	!	!	!	!	!LO:TX:t=P:problem=kreska pseudotaktowa	!	!	!
.	.	.	.	.	.	.	8E/	-ry-	.	.
=25-	=25-	=25-	=25-	=25-	=25-	=25-	=25-	=25-	=25-	=25-
.	.	.	.	.	2B\	-i-	1B\	-e	4Gny/	.
.	.	.	.	.	.	.	.	.	4A/	.
2BB/	.	.	2BB/	.	1d\	.	.	.	4B/	.
.	.	.	.	.	.	.	.	.	4c/	.
!LO:TX:t=P:problem=kreska pseudotaktowa	!	!	!LO:TX:t=P:problem=kreska pseudotaktowa	!	!	!	!	!	!	!
2D/	.	.	2D/	.	.	.	4F#X/	e-	4A/	.
!	!	!	!	!	!	!	!LO:TX:t=P:problem=kreska pseudotaktowa	!	!LO:TX:t=P:problem=kreska pseudotaktowa	!
.	.	.	.	.	.	.	4Gny/	.	4B/	.
=26-	=26-	=26-	=26-	=26-	=26-	=26-	=26-	=26-	=26-	=26-
4AA/	.	.	4AA/	.	1c\	.	1A\	.	4c\	.
4BB/	.	.	4BB/	.	.	.	.	.	4d\	.
!	!	!	!	!	!	!	!	!	!LO:TX:t=P:problem=kreska pseudotaktowa	!
4C/	.	.	4C/	.	.	.	.	.	1e\	.
4D/	.	.	4D/	.	.	.	.	.	.	.
!LO:TX:t=P:problem=kreska pseudotaktowa	!	!	!	!	!	!	!LO:TX:t=P:problem=kreska pseudotaktowa	!	!	!
2E\	#	e-	2E\	.	2B/	.	2G#X/	.	.	.
=27-	=27-	=27-	=27-	=27-	=27-	=27-	=27-	=27-	=27-	=27-
2F\	.	-lei-	2F\	.	1A\	-son	2A/	.	2c/	.
2D/	.	.	2D/	-lei-	.	.	2d\	.	2fny\	.
*	*	*	*custos:AA	*	*	*	*	*	*	*
!	!	!	!LO:TX:t=P:problem=kreska pseudotaktowa	!	!	!	!	!	!	!
*	*	*	*custos:A	*	*	*	*	*	*	*
!	!	!	!	!	!	!	!LO:TX:t=P:problem=kreska pseudotaktowa	!	!	!
2E\	.	-son	2E\	-son.	2G#X/	.	2B\	-lei-	2e\	-lei-
=28-	=28-	=28-	=28-	=28-	=28-	=28-	=28-	=28-	=28-	=28-
*M2/1	*	*	*M2/1	*	*M2/1	*	*M2/1	*	*M2/1	*
*met(c)	*	*	*met(c)	*ij	*met(c)	*ij	*met(c)	*	*met(c)	*
!	!	!	!LO:LB:g=original	!	!LO:TX:t=P:problem=brak zmiany metrum	!	!	!	!	!
4A\	.	Ky-	4A\	Ky-	2A,<\	.	2c\	-son	4e\	-son
4G\	.	-ri-	4G\	-ri-	.	.	.	.	8f\L	e-
.	.	.	.	.	.	.	.	.	8g\J	.
!	!	!	!	!	!LO:TX:t=P:problem=kreska pseudotaktowa	!	!	!	!	!
4F\	.	-e	4F\	-e	2c\	Ky-	4.c\	Ky-	4a\	.
*	*	*	*	*	*	*	*	*	*custos:f	*
!	!	!	!	!	!	!	!	!	!LO:TX:t=P:problem=kreska pseudotaktowa	!
!LO:TX:t=P:problem=kreska pseudotaktowa	!	!	!LO:TX:t=P:problem=kreska pseudotaktowa	!	!	!	!	!	!	!
4E\	.	.	4E\	.	.	.	.	.	4g\	.
!	!	!	!	!	!	!	!LO:TX:t=P:problem=kreska pseudotaktowa	!	!	!
.	.	.	.	.	.	.	8c\	-ry-	.	.
!	!	!	!	!	!	!	!	!	!LO:LB:g=original	!
2D/	.	.	2D/	e-	2A\	-rie	2d\	-e	2f\	.
!LO:TX:t=P:problem=kreska pseudotaktowa	!	!	!LO:TX:t=P:problem=kreska pseudotaktowa	!	!	!	!	!	!LO:TX:t=P::problem=kreska pseudotaktowa&colon;między nutą a kropką	!
2C#X/	.	e-	2C#X/	.	1A\	e-	2e\	e-	2.e\	.
=29-	=29-	=29-	=29-	=29-	=29-	=29-	=29-	=29-	=29-	=29-
1D\	.	-lei-	1D\	-lei-	.	.	1fny\	-lei-	.	.
.	.	.	.	.	.	.	.	.	8d\L	.
.	.	.	.	.	.	.	.	.	8c\J	.
.	.	.	.	.	2A/	-lei-	.	.	2d\	-lei-
!	!	!	!	!	!	!	!	!	!LO:TX:t=P:problem=# below	!
1AA/;	#	-son.	1AA/;	-son	1A\;;	-son	1e\	-son	1c#X\;	-son
*	*	*	*	*Xij	*	*Xij	*	*Xij	*	*
==	==	==	==	==	==	==	==	==	==	==
*-	*-	*-	*-	*-	*-	*-	*-	*-	*-	*-
!!!system-decoration: [(s1,s2,s3,s4)][(s5)]
!!!RDF**kern: | = vertical stroke
!!!RDF**kern: > = above
!!!RDF**kern: < = below
!!!EED: Andrzej Borzym
!!!EEV: 2021-04-07
!!!ENC: Katarzyna Serwa
!!!END: 2021-03-26
